X: 15281
T: Girl With The Blue Dress On, The
R: polka
M: 2/4
K: Gmajor
|:B/c/|df/e/ d/e/d/A/|BG GF/G/|AD F/E/D/F/|AG G2:|
D|GB/d/ ge|fd fe/d/|GB/d/ ge|fd fe/d/|
GB/d/ ge|fd fg|ad f/e/d/f/|ag g||

